; generated by PrusaSlicer 2.9.5 on 2026-06-23 at 23:47:03 UTC


;
;

;
;

;
;

;
;
; 

; external perimeters extrusion width = 0.45mm
; perimeters extrusion width = 0.45mm
; infill extrusion width = 0.45mm
; solid infill extrusion width = 0.45mm
; top infill extrusion width = 0.40mm
; first layer extrusion width = 0.50mm

M73 P0 R65
M73 Q0 S70
M201 X10000 Y10000 Z400 E5000 ; sets maximum accelerations, mm/sec^2
M203 X500 Y500 Z15 E100 ; sets maximum feedrates, mm / sec
M204 P7000 R2500 T6000 ; sets acceleration (P, T) and retract acceleration (R), mm/sec^2
M205 X10.00 Y10.00 Z2.00 E10.00 ; sets the jerk limits, mm/sec
M205 J0.010 ; sets the junction deviation, mm
M205 S0 T0 ; sets the minimum extruding and travel feed rate, mm/sec

M486 S0
M486 Axyz-cali-cube-by-r3d_v1.stl
M486 S-1

;TYPE:Custom
M17 ; enable steppers
M862.1 P0.4 A0 F1 ; nozzle check
M862.3 P "COREONEL" ; printer model check
M862.5 P2 ; g-code level check
M862.6 P"Input shaper" ; FW feature check
M115 U6.5.3+12780

M555 X142.662 Y127.579 W39.8 H43.8

G90 ; use absolute coordinates
M83 ; extruder relative mode

M140 S60 ; set bed temp

M106 P5 R A125 B10 ;turn on bed fans with fade for bed


M109 R170 ; wait for temp

M84 E ; turn off E motor

G28 ; home all without mesh bed level

G1 Z20 F720 ;lift bed to optimal bed fan height


M141 S20 ; set nominal chamber temp

M106 P3 N76 G3



M106 S70
M190 R60 ; wait for bed temp
M107
 
; turn off bed fans for chamber temps < 50C
M107 P5

M109 R170 ; wait for MBL temp

M302 S155 ; lower cold extrusion limit to 155C


G1 E-2 F2400 ; retraction


M84 E ; turn off E motor

G29 P9 X208 Y-2.5 W32 H4

;
; MBL
;

M84 E ; turn off E motor
G29 P1 ; invalidate mbl & probe print area
G29 P1 X150 Y0 W100 H20 C ; probe near purge place
G29 P3.2 ; interpolate mbl probes
G29 P3.13 ; extrapolate mbl outside probe area
G29 A ; activate mbl

; prepare for purge
M104 S230
G0 X249 Y-2.5 Z15 F4800 ; move away and ready for the purge
M109 S230

G92 E0
M569 S0 E ; set spreadcycle mode for extruder

M591 S0 ; disable stuck detection

;
; Extrude purge line
;
G92 E0 ; reset extruder position
G1 E2 F2400 ; deretraction after the initial one
G0 E5 X235 Z0.2 F500 ; purge
M73 Q0 S69
G0 X225 E4 F500 ; purge
G0 X215 E4 F650 ; purge
G0 X205 E4 F800 ; purge
G0 X202 Z0.05 F8000 ; wipe, move close to the bed
G0 X199 Z0.2 F8000 ; wipe, move quickly away from the bed

M591 R ; restore stuck detection

G92 E0
M221 S100 ; set flow to 100%
G21 ; set units to millimeters
G90 ; use absolute coordinates
M83 ; use relative distances for extrusion
M572 S0.03 ; Filament gcode

M142 S36 ; set heatbreak target temp
M107
;LAYER_CHANGE
;Z:0.2
;HEIGHT:0.2
G1 E-.7 F2700
G1 Z.8 F480
G1 X144.499 Y133.663 F30000
G1 Z.2 F480
G1 E.7 F1500
M204 P500
;TYPE:Skirt/Brim
;WIDTH:0.5
G1 F2700
G3 X147.436 Y132.236 I3.296 J3.049 E.12701
G1 X177.75 Y132.241 E1.15212
G3 X181.804 Y136.344 I-.422 J4.471 E.23805
G1 X181.804 Y166.614 E1.15045
G3 X177.689 Y170.721 I-4.475 J-.369 E.24034
G1 X147.427 Y170.721 E1.15015
G3 X143.32 Y166.606 I.369 J-4.475 E.24034
G1 X143.32 Y136.344 E1.15015
G3 X144.458 Y133.708 I4.475 J.368 E.11107
M204 P3000
M204 T6000
G1 X144.797 Y134.012 F30000
M204 P500
G1 F2700
G3 X147.456 Y132.694 I2.993 J2.695 E.11551
G1 X177.728 Y132.698 E1.15053
G3 X181.347 Y136.367 I-.395 J4.009 E.21252
G1 X181.347 Y166.591 E1.1487
G3 X177.669 Y170.264 I-4.013 J-.341 E.21473
G1 X147.45 Y170.264 E1.14851
G3 X143.777 Y166.586 I.341 J-4.013 E.21473
G1 X143.777 Y136.367 E1.14851
G3 X144.757 Y134.057 I4.013 J.34 E.09698
M204 P3000
G1 X145.1 Y134.357 F30000
M204 P500
G1 F2700
G3 X147.475 Y133.151 I2.686 J2.346 E.10375
G1 X177.705 Y133.155 E1.14893
G3 X180.89 Y136.389 I-.368 J3.548 E.18699
G1 X180.89 Y166.568 E1.14699
G3 X177.65 Y169.807 I-3.552 J-.314 E.18909
G1 X147.473 Y169.807 E1.14692
G3 X144.234 Y166.566 I.313 J-3.552 E.18912
G1 X144.234 Y136.389 E1.14692
G3 X145.061 Y134.403 I3.552 J.314 E.08306
M204 P3000
G1 X145.41 Y134.697 F30000
M204 P500
G1 F2700
G3 X147.495 Y133.608 I2.372 J2.001 E.09169
G1 X177.682 Y133.612 E1.1473
G3 X180.433 Y136.412 I-.34 J3.086 E.1615
G1 X180.433 Y166.546 E1.14528
G3 X177.629 Y169.35 I-3.091 J-.287 E.16348
G1 X147.495 Y169.35 E1.14528
G3 X144.691 Y166.546 I.287 J-3.091 E.16348
G1 X144.691 Y136.412 E1.14528
G3 X145.371 Y134.743 I3.091 J.286 E.0695
M204 P3000
G1 X145.725 Y135.03 F30000
M204 P500
G1 F2700
G3 X147.516 Y134.065 I2.052 J1.664 E.07937
G1 X177.658 Y134.069 E1.14559
G3 X179.976 Y136.434 I-.313 J2.625 E.13601
G1 X179.976 Y166.523 E1.14357
G3 X177.608 Y168.893 I-2.629 J-.26 E.13792
G1 X147.517 Y168.893 E1.14365
G3 X145.148 Y166.524 I.26 J-2.63 E.13792
G1 X145.148 Y136.434 E1.14361
G3 X145.688 Y135.077 I2.629 J.26 E.05624
M204 P3000
G1 X146.048 Y135.356 F30000
M204 P500
G1 F2700
G3 X147.539 Y134.522 I1.726 J1.334 E.06672
G1 X177.632 Y134.526 E1.14372
G3 X179.519 Y136.457 I-.283 J2.165 E.11063
G1 X179.519 Y166.501 E1.14186
G3 X177.585 Y168.436 I-2.169 J-.234 E.11239
G1 X147.54 Y168.436 E1.1419
G3 X145.605 Y166.502 I.233 J-2.169 E.11239
G1 X145.605 Y136.457 E1.1419
G3 X146.012 Y135.404 I2.169 J.233 E.0434
M204 P3000
G1 X146.38 Y135.672 F30000
M204 P500
G1 F2700
G3 X147.562 Y134.979 I1.39 J1.015 E.05356
G1 X177.607 Y134.983 E1.1419
G3 X179.062 Y136.479 I-.257 J1.705 E.08519
G1 X179.062 Y166.479 E1.14019
G3 X177.562 Y167.979 I-1.708 J-.208 E.08688
G1 X147.562 Y167.979 E1.14019
G3 X146.062 Y166.478 I.208 J-1.708 E.08691
G1 X146.062 Y136.479 E1.14015
G3 X146.346 Y135.721 I1.708 J.208 E.03106
M204 P3000
G1 X146.723 Y135.977 F30000
M204 P500
G1 F2700
G3 X147.585 Y135.436 I1.046 J.708 E.03981
G1 X177.581 Y135.44 E1.14004
G3 X178.605 Y136.501 I-.233 J1.249 E.05979
G1 X178.605 Y166.456 E1.13848
G3 X177.539 Y167.521 I-1.25 J-.184 E.06137
G1 X147.585 Y167.521 E1.13844
G3 X146.519 Y166.456 I.184 J-1.249 E.06137
G1 X146.519 Y136.501 E1.13848
G3 X146.691 Y136.028 I1.25 J.184 E.01926
M73 P0 R64
M204 P3000
G1 X147.079 Y136.266 F30000
M204 P500
G1 F2700
G3 X147.607 Y135.893 I.697 J.427 E.02526
G1 X177.561 Y135.902 E1.13844
G3 X178.148 Y136.524 I-.22 J.795 E.03417
G1 X178.148 Y166.434 E1.13677
G3 X177.517 Y167.064 I-.8 J-.169 E.03585
G1 X147.607 Y167.064 E1.13677
G3 X146.976 Y166.434 I.169 J-.799 E.03585
G1 X146.976 Y136.524 E1.13677
G3 X147.05 Y136.318 I.8 J.169 E.00834
M73 P1 R64
M204 P3000
G1 X147.458 Y136.534 F30000
M204 P500
G1 F2700
G3 X147.675 Y136.35 I.336 J.177 E.01108
G1 X177.449 Y136.35 E1.1316
G3 X177.691 Y136.592 I-.119 J.361 E.01349
G1 X177.691 Y166.366 E1.1316
G3 X177.449 Y166.607 I-.361 J-.12 E.01346
M73 Q1 S69
G1 X147.675 Y166.607 E1.1316
G3 X147.433 Y166.366 I.119 J-.361 E.01346
G1 X147.433 Y136.592 E1.1316
G3 X147.435 Y136.589 I.361 J.119 E.00014
M204 P3000
G1 E-.7
M486 S0
G1 X162.899 Y145.843 Z.515 F27502.605
G1 Z.2 F480
G1 E.7 F1500
M204 P500
;TYPE:External perimeter
;WIDTH:0.436667
G1 F2700
G1 X162.815 Y145.881 E.00302
;WIDTH:0.452275
G1 X162.332 Y145.856 E.01646
;WIDTH:0.499999
G1 X161.306 Y145.811 E.03903
G1 X161.138 Y145.727 E.00714
G1 X161.086 Y145.579 E.00596
;WIDTH:0.505931
G1 X161.275 Y144.918 E.02647
;WIDTH:0.554671
G1 X161.349 Y144.671 E.01097
G1 X161.504 Y144.477 E.01057
;WIDTH:0.527335
G1 X161.659 Y144.283 E.01
;WIDTH:0.499999
G1 X162.032 Y143.917 E.01986
G1 X162.496 Y143.692 E.0196
G1 X163.162 Y143.507 E.02627
G1 X163.679 Y143.467 E.01971
G1 X164.639 Y143.503 E.03651
G1 X165.442 Y143.714 E.03156
G1 X165.935 Y144.013 E.02191
G1 X166.327 Y144.464 E.02271
;WIDTH:0.547224
G1 X166.548 Y145.063 E.02677
G1 X166.598 Y145.478 E.01753
;WIDTH:0.533363
G1 X166.606 Y145.987 E.02076
;WIDTH:0.536374
G1 X166.595 Y147.649 E.06819
;WIDTH:0.536508
G2 X166.657 Y148.782 I9.947 J.02 E.0466
;WIDTH:0.528959
G1 X166.73 Y149.121 E.01401
;WIDTH:0.503653
G1 X166.802 Y149.459 E.01324
;WIDTH:0.479552
G1 X166.808 Y149.535 E.00277
;WIDTH:0.499999
G1 X166.73 Y149.695 E.00677
G1 X166.617 Y149.74 E.00462
G1 X165.538 Y149.865 E.04128
G1 X164.888 Y149.873 E.02471
G1 X164.731 Y149.813 E.00639
G1 X164.616 Y149.564 E.01042
G1 X164.231 Y149.789 E.01695
G1 X163.832 Y149.917 E.01593
G1 X163.212 Y149.994 E.02374
G1 X162.585 Y149.937 E.02393
G1 X162.099 Y149.772 E.01951
G1 X161.598 Y149.45 E.02263
G1 X161.216 Y148.957 E.0237
G1 X161.049 Y148.475 E.01939
;WIDTH:0.528078
G1 X161.032 Y148.084 E.01579
G1 X161.134 Y147.58 E.02074
;WIDTH:0.501597
G1 X161.302 Y147.02 E.0223
;WIDTH:0.499999
G1 X161.58 Y146.613 E.01873
G1 X161.923 Y146.393 E.01549
G3 X162.593 Y146.215 I1.137 J2.939 E.0264
;WIDTH:0.45296
G1 X162.772 Y146.19 E.00616
;WIDTH:0.40592
G1 X162.952 Y146.165 E.00549
;WIDTH:0.406963
G1 X163.129 Y146.1 E.00571
;WIDTH:0.455046
G1 X163.305 Y146.034 E.00644
;WIDTH:0.499144
G1 X163.459 Y145.958 E.00651
;WIDTH:0.543241
G3 X164.192 Y145.647 I3.651 J7.609 E.03314
G1 X164.249 Y145.593 E.00327
G1 X164.193 Y145.521 E.00379
G1 X163.89 Y145.396 E.01364
G1 X163.474 Y145.399 E.01731
G1 X163.178 Y145.559 E.014
;WIDTH:0.527508
G1 X163.102 Y145.672 E.00549
;WIDTH:0.482088
G1 X163.026 Y145.784 E.00494
;WIDTH:0.436667
G1 X162.953 Y145.818 E.00264
M204 P3000
G1 X162.555 Y145.86 F30000
G1 E-.7 F2700
G1 X161.014 Y146.661 Z.23 F27504.127
G1 Z.2 F480
G1 E.7 F1500
M204 P500
;TYPE:Perimeter
;WIDTH:0.442081
G1 F2700
G1 X160.905 Y146.561 E.00491
;WIDTH:0.472642
G1 X160.448 Y146.264 E.01947
;WIDTH:0.499999
G1 X159.967 Y146.045 E.02009
G1 X159.089 Y145.763 E.03505
;WIDTH:0.486641
G1 X158.8 Y145.743 E.01069
;WIDTH:0.499999
G1 X158.469 Y145.857 E.01331
G2 X158.219 Y146.214 I.559 J.657 E.01675
G1 X158.062 Y146.747 E.02112
G1 X157.858 Y147.13 E.01649
G1 X157.612 Y147.31 E.01159
G1 X157.381 Y147.349 E.0089
G1 X157.05 Y147.291 E.01277
G1 X156.853 Y147.164 E.00891
G1 X156.644 Y146.822 E.01523
G1 X156.492 Y146.321 E.0199
G3 X156.499 Y145.123 I6.058 J-.567 E.04561
G1 X156.579 Y144.726 E.01539
G1 X156.781 Y144.32 E.01723
G1 X157.091 Y144.104 E.01436
G1 X157.509 Y144.071 E.01594
G1 X157.761 Y144.146 E.00999
G1 X157.99 Y144.353 E.01173
G1 X158.257 Y145.031 E.02769
G1 X158.452 Y145.226 E.01048
G1 X158.788 Y145.321 E.01327
;WIDTH:0.486641
G1 X159.109 Y145.284 E.01192
;WIDTH:0.499999
G1 X160.81 Y144.884 E.06641
G1 X160.658 Y145.382 E.01979
G1 X160.636 Y145.685 E.01155
G1 X160.8 Y146.005 E.01367
;WIDTH:0.459605
G1 X161.05 Y146.183 E.01063
;WIDTH:0.442081
G1 X161.335 Y146.24 E.00965
G1 X161.05 Y146.613 E.01558
M204 P3000
G1 E-.7
G1 X164.465 Y150.181 Z.286 F27506.049
G1 Z.2 F480
G1 E.7 F1500
M204 P500
;WIDTH:0.499999
G1 F2700
G1 X163.923 Y150.365 E.02175
G1 X163.268 Y150.448 E.02509
G1 X162.539 Y150.391 E.02779
G1 X162.004 Y150.23 E.02123
G1 X161.351 Y149.834 E.02903
G1 X161.17 Y149.665 E.00941
G1 X160.848 Y149.228 E.02063
G1 X160.676 Y148.828 E.01655
G3 X160.003 Y149.608 I-4.959 J-3.598 E.0392
G3 X158.741 Y150.272 I-2.882 J-3.95 E.05439
G3 X157.437 Y150.457 I-1.619 J-6.735 E.05013
G1 X156.927 Y150.419 E.01944
G3 X155.787 Y150.169 I.572 J-5.342 E.04444
G1 X155.179 Y149.856 E.02599
G1 X154.368 Y149.227 E.03901
G1 X154.223 Y149.069 E.00815
G1 X153.672 Y148.241 E.0378
G1 X153.375 Y147.601 E.02682
G1 X153.199 Y146.904 E.02732
G3 X153.117 Y145.315 I9.141 J-1.265 E.06055
G1 X153.26 Y144.268 E.04016
G1 X153.411 Y143.761 E.02011
G1 X153.838 Y142.932 E.03544
G1 X154.232 Y142.348 E.02677
G1 X154.385 Y142.188 E.00841
G1 X155.28 Y141.511 E.04265
G1 X155.726 Y141.278 E.01912
G1 X156.575 Y141.045 E.03346
G1 X157.415 Y140.953 E.03212
G1 X158.349 Y141.032 E.03562
G1 X158.919 Y141.169 E.02228
G1 X159.635 Y141.513 E.03019
G1 X160.252 Y141.943 E.02858
G1 X160.794 Y142.579 E.03176
G1 X161.137 Y143.233 E.02807
G1 X161.381 Y143.915 E.02753
G1 X161.767 Y143.545 E.02032
G1 X162.283 Y143.287 E.02193
G1 X163.041 Y143.067 E.03
G1 X163.648 Y143.011 E.02317
G1 X164.656 Y143.047 E.03833
G1 X165.561 Y143.272 E.03544
G1 X166.179 Y143.626 E.02707
G1 X166.648 Y144.134 E.02628
G1 X166.646 Y141.764 E.09007
G1 X166.718 Y141.459 E.01191
G1 X166.948 Y141.195 E.01331
G1 X167.213 Y141.088 E.01086
G1 X168.04 Y141.088 E.03143
G3 X169.186 Y141.308 I-.313 J4.724 E.04446
G1 X169.336 Y141.371 E.00618
G1 X169.423 Y141.519 E.00652
G1 X169.509 Y141.371 E.00651
G1 X170.152 Y141.17 E.0256
G3 X171.503 Y141.079 I1.174 J7.333 E.05153
G1 X171.737 Y141.116 E.009
G3 X172.199 Y141.774 I-.247 J.665 E.03249
G1 X172.189 Y142.436 E.02516
G3 X171.9 Y143.669 I-3.728 J-.223 E.04837
G3 X172.131 Y144.475 I-5.704 J2.074 E.03189
G1 X172.199 Y145.481 E.03832
G1 X172.199 Y149.645 E.15826
G1 X172.171 Y149.837 E.00737
G1 X171.985 Y150.143 E.01361
G1 X171.804 Y150.266 E.00832
G1 X171.503 Y150.33 E.0117
G1 X170.806 Y150.32 E.02649
G3 X169.509 Y150.037 I.23 J-4.177 E.05067
G1 X169.423 Y149.904 E.00602
G1 X169.337 Y150.038 E.00605
G3 X168.436 Y150.261 I-1.402 J-3.725 E.03536
G3 X167.368 Y150.194 I-.275 J-4.171 E.04078
G3 X167.007 Y150.058 I.283 J-1.302 E.01471
G1 X166.719 Y150.189 E.01202
G1 X165.591 Y150.319 E.04315
G1 X164.893 Y150.33 E.02653
G1 X164.544 Y150.239 E.01371
G1 X164.513 Y150.217 E.00144
M204 P3000
G1 E-.7
G1 X160.751 Y147.052 Z.286 F27504.136
G1 Z.2 F480
G1 E.7 F1500
M204 P500
;TYPE:External perimeter
;WIDTH:0.500447
G1 F2700
G1 X160.775 Y147.182 E.00503
;WIDTH:0.528078
G3 X160.428 Y148.361 I-11.704 J-2.806 E.0496
;WIDTH:0.499999
G1 X160.171 Y148.766 E.01823
G1 X159.671 Y149.294 E.02764
G1 X159.024 Y149.666 E.02836
G1 X158.55 Y149.854 E.01938
G3 X157.406 Y150.001 I-1.351 J-5.995 E.0439
G1 X156.466 Y149.89 E.03597
G1 X155.917 Y149.731 E.02172
G1 X155.397 Y149.455 E.02237
G1 X154.652 Y148.868 E.03605
G1 X154.052 Y147.987 E.04051
G1 X153.792 Y147.414 E.02391
G1 X153.644 Y146.799 E.02404
G3 X153.575 Y145.345 I8.577 J-1.136 E.05539
G1 X153.713 Y144.329 E.03897
G1 X153.862 Y143.863 E.01859
G3 X154.63 Y142.575 I7.594 J3.656 E.05707
G1 X155.556 Y141.875 E.04412
G1 X155.972 Y141.672 E.01759
G1 X156.689 Y141.488 E.02813
G1 X157.461 Y141.408 E.0295
G1 X158.304 Y141.487 E.03218
G1 X158.806 Y141.612 E.01966
G1 X159.428 Y141.921 E.0264
G1 X159.987 Y142.315 E.02599
G1 X160.437 Y142.864 E.02698
G1 X160.728 Y143.437 E.02443
G1 X160.968 Y144.12 E.02751
;WIDTH:0.525411
G1 X160.967 Y144.224 E.00417
;WIDTH:0.550823
G1 X160.967 Y144.328 E.00439
G1 X160.86 Y144.41 E.00569
;WIDTH:0.526884
G1 X160.198 Y144.561 E.02732
;WIDTH:0.499999
G1 X158.881 Y144.875 E.05146
G1 X158.703 Y144.844 E.00687
G1 X158.585 Y144.652 E.00857
G1 X158.39 Y144.117 E.02164
G1 X158.142 Y143.832 E.01436
G1 X157.806 Y143.652 E.01449
G1 X157.411 Y143.595 E.01517
G1 X156.857 Y143.708 E.02149
G2 X156.421 Y144.024 I1.686 J2.783 E.02049
G2 X156.06 Y144.854 I2.458 J1.564 E.03454
G1 X156.002 Y145.661 E.03075
G1 X156.038 Y146.392 E.02782
G1 X156.176 Y146.912 E.02045
G1 X156.42 Y147.389 E.02036
G2 X156.889 Y147.727 I1.897 J-2.132 E.02201
G1 X157.379 Y147.812 E.0189
G1 X157.773 Y147.747 E.01518
G1 X158.108 Y147.545 E.01487
G1 X158.391 Y147.133 E.019
G1 X158.679 Y146.293 E.03375
G1 X158.85 Y146.181 E.00777
G1 X159.892 Y146.502 E.04144
G3 X160.738 Y146.979 I-1.312 J3.312 E.03703
;WIDTH:0.500447
G1 X160.74 Y146.993 E.00054
M204 P3000
G1 X160.713 Y147.392 F30000
G1 E-.7 F2700
G1 X169.156 Y149.551 Z.352 F27503.468
G1 Z.2 F480
G1 E.7 F1500
M204 P500
;WIDTH:0.499999
G1 F2700
G1 X169.112 Y149.639 E.00374
G1 X168.565 Y149.793 E.0216
G1 X168.037 Y149.82 E.02009
G1 X167.43 Y149.741 E.02326
G1 X167.322 Y149.696 E.00445
G1 X167.237 Y149.451 E.00986
;WIDTH:0.502353
G1 X167.189 Y149.093 E.0138
;WIDTH:0.528959
G1 X167.141 Y148.736 E.01456
;WIDTH:0.536374
G1 X167.088 Y148.014 E.0297
G1 X167.092 Y145.993 E.08292
;WIDTH:0.533363
G1 X167.105 Y144.44 E.06333
;WIDTH:0.499999
G1 X167.103 Y141.764 E.1017
G1 X167.158 Y141.616 E.006
G1 X167.292 Y141.538 E.00589
G1 X168.033 Y141.545 E.02816
G3 X169.112 Y141.769 I-.245 J3.898 E.04202
G1 X169.211 Y141.968 E.00845
;WIDTH:0.465471
G1 X169.211 Y143.325 E.04768
;WIDTH:0.500457
G1 X169.229 Y143.497 E.00658
;WIDTH:0.535442
G3 X169.229 Y143.841 I-1.02 J.172 E.01415
;WIDTH:0.500457
G1 X169.211 Y144.013 E.00658
;WIDTH:0.465471
G1 X169.211 Y149.44 E.19068
;WIDTH:0.499999
G1 X169.183 Y149.497 E.00241
M204 P3000
G1 X168.843 Y149.708 F30000
G1 E-.7 F2700
G1 X169.788 Y143.497 Z.31 F27503.454
G1 Z.2 F480
G1 E.7 F1500
M204 P500
;WIDTH:0.535442
G1 F2700
G1 X169.669 Y143.497 E.00487
G1 X169.651 Y143.411 E.0036
